X:1     %Music
T:Ploughboy's Glory
S:Mr Knight, Horsham, 1907
Z:George Butterworth, IV 261-262; V1a 61; VIIc, 86
B:The Ploughboy's Glory, Ed M Dawney, EFDSS, 1977
F:http://www.folkinfo.org/songs
M:3/4     %Meter
L:1/8     %
K:G
D2 |D2 G2 D2 |G2 F2 D2 |E2 G2 E2 | D4
w:Come all you gay plough-boys, come help me to sing,
D2 |G2 A2 B2 |d2 c2 B2 |A4-|A6
w:I~will sing in the praise of you all 
G2 |d2 A2 B2 |c2 c2 d2 |B2 G2 A2 | D4
w:And if we don't la-bour how can we get bread,
D2 |G2 B2 d2 |c2 A2 F2 |G6 |]
w:We~will sing and be mer-ry with-al. 